X:1
T: Miss Catherine Crawford
C:C Sherrit
R:Strathspey
Q: 128
K:A
M:4/4
L:1/16
|:F2|EA,3 C3E FD3 E3c|d3e fedc B3A G3F|EA,3 C3E FD3 d2ef|e3c Bcde cA3 A3F|
EA,3 C3E FD3 E3c|d3e fedc B3A GB3|A3c e3c defg a3f|e3c Bcde cA3 A3c|
e2fg a3e fa3 e3c|d3e fedc dB3 B3f|e2fg a3e fa3 e3c|d2ef eG3 A4 A3c|
e2fg a3e fa3 e3c|d3e fedc B3A GB3|A3c e3c defg a3f|e3c Bcde cA3 A2:|
